X:1
T:Title
%%score { ( 1 3 5 ) | ( 2 4 ) }
L:1/8
Q:1/4=87
M:6/8
K:D
V:1 treble nm="Grand Piano"
V:3 treble 
V:5 treble 
V:2 bass 
V:4 bass 
V:1
 FED [FA][EG]F | GF[GB] [FA]3 | FED [FA][FA][Fd] | cdB [CA]3 | FED [FA][EG]F | GF[GB] [FA]3 | %6
w: C.~D.~Amstatz * * * * *||||||
 [Fd]cd E[B,EG][DB] | [DA]CE D3 | .F6[K:bass] | .[FA]6 | .[DG]6 | [DA]6[K:bass] | .[DF]6 | .[FA]6 | %14
w: ||||||||
 .c6 | [CA]6 | .[DF]6[K:bass] | .[FA]6 | .[DG]6 | [DA]6[K:bass] | .[Fd]6 | z B,B, z G[DB] | %22
w: ||||||||
 .[DA]6[K:bass] | D6 |] %24
w: ||
V:2
 [D,A,D][D,G,D][D,F,] [D,D][D,D][D,A,D] | [D,B,D][D,A,D][D,D] [D,D]3 | %2
 [D,A,D][D,G,D][D,F,] [D,C][D,D][D,A,] | [E,A,E][E,^G,E][E,G,D] [A,,A,]3 | %4
 [D,A,D][D,G,D][D,F,] [D,D][D,D][D,A,D] | [D,B,D][D,A,D][D,D] [D,D]3 | %6
 [D,A,][E,A,E][F,A,D] [G,B,]G,,[G,,G,] | [A,,F,][A,,G,A,][A,,G,A,] [D,F,A,]3 | .D6 | %9
 [D,D]D,D, z ED | G,,G,,G,, G,,G,,[G,,G,] | [D,F,]D,D, .D,3 | D,D,D, D,[D,G,D][D,F,] | %13
 [D,D]D,D, z[K:treble] FF | E-[E,E-][E,E-] [E,E][E,^G,E][E,G,D] | [A,,A,]A,,A,, .A,,3 | %16
 D,D,D, D,[D,G,D][D,F,] | [D,D]D,D, z ED | G,,G,,G,, G,,G,,[G,,G,] | [D,F,]D,D, .D,3 | %20
 [D,A,]D,D, D,[E,A,E][F,A,D] | [G,B,]G,G, z EG, | [A,,F,]A,,A,, A,,[A,,E,A,][A,,G,A,] | %23
 [D,F,]D,D, .D,3 |] %24
V:3
 x6 | x6 | x6 | x6 | x6 | x6 | x6 | x6 | z[K:bass] A,A, A,ED | z DD z GF | B,B,B, B,[A,DA][DB] | %11
 z[K:bass] F,F, .F,3 | A,A,A, A,ED | z DD z Ad | z A,A, A,dB | z A,A, .A,3 | A,[K:bass]A,A, A,ED | %17
 z DD z GF | B,B,B, B,[A,DA][DB] | z[K:bass] F,F, .F,3 | z A,A, A,cd | .E6 | z[K:bass] F,F, F,CE | %23
 z F,F, .F,3 |] %24
V:4
 x6 | x6 | x6 | x6 | x6 | x6 | x6 | x6 | [D,A,]D,D, D,[D,G,D][D,F,] | z3 D,3 | x6 | x6 | x6 | %13
 z3 D,3[K:treble] | .[E,A,]3 z3 | x6 | x6 | z3 D,3 | x6 | x6 | x6 | z3 G,,3 | x6 | x6 |] %24
V:5
 x6 | x6 | x6 | x6 | x6 | x6 | x6 | x6 | x[K:bass] x5 | z3 A,3 | x6 | x[K:bass] x5 | x6 | z3 A,3 | %14
 x6 | x6 | x[K:bass] x5 | z3 .D3 | x6 | x[K:bass] x5 | x6 | z3 .B,3 | x[K:bass] x5 | x6 |] %24

